_inc/images/systems/logos/auto-neverplayed.svg

<svg viewBox="0 0 200 40" xmlns="http://www.w3.org/2000/svg">
    <path d="M58.858 1.587c.244-.409.436-.785.673-1.129.41-.601 1.03-.62 1.393 0a270.117 270.117 0 0 1 3.202 5.553c.35.627.014 1.175-.726 1.188-2.113.026-4.225.026-6.338 0-.772-.007-1.063-.548-.713-1.248.185-.376.409-.733.667-1.188-.601-.185-1.136-.383-1.684-.522-9.078-2.31-18.4 3.691-20.03 12.888-1.671 9.408 4.958 18.228 14.399 19.165 12.412 1.235 21.556-11.269 16.644-22.724-.205-.482-.311-1.076-.245-1.591.086-.74.819-1.288 1.578-1.321.819-.033 1.433.337 1.776 1.083a19.225 19.225 0 0 1 1.763 6.781c.739 10.035-6.001 19.027-15.786 21.054-9.824 2.04-19.674-3.433-22.869-12.973-2.602-7.771-1.01-14.862 4.819-20.639C43.184.214 50.216-1.172 58.006 1.29c.264.073.509.172.852.297Z" style="fill:#ccc"/>
    <path d="M48.75 16.277c0-1.637-.007-3.268 0-4.905.007-.885.442-1.407 1.149-1.407.706.007 1.122.515 1.122 1.42.007 2.905.02 5.803-.013 8.701-.007.528.178.799.621 1.05 3.175 1.776 6.338 3.578 9.5 5.374.158.093.33.172.482.277.601.41.779 1.011.462 1.572-.317.554-.944.746-1.578.422-.7-.363-1.38-.772-2.066-1.162-2.912-1.65-5.817-3.321-8.741-4.945-.687-.383-.971-.865-.951-1.65.039-1.578.013-3.163.013-4.747Z" style="fill:#ccc"/>
    <path d="m88.567 19.267-3.06-6.66c-.08-.14-.12-.335-.12-.585 0-.25.02-.535.06-.855h-.24l-1.41 8.1h-5.7l3.3-18.75h5.37l3.06 6.66c.06.14.09.335.09.585 0 .25-.02.535-.06.855h.24l1.44-8.1h5.7l-3.3 18.75Zm21.81-7.08h-5.7l-.39 2.28h6.99l-.84 4.8h-12.69l3.3-18.75h12.54l-1.56 4.8h-6.15l-.42 2.52h5.7Zm15.96-11.67h6.03l-7.71 18.75h-8.34l-1.11-18.75h6.33v11.91h.27Zm17.4 11.67h-5.7l-.39 2.28h6.99l-.84 4.8h-12.69l3.3-18.75h12.54l-1.56 4.8h-6.15l-.42 2.52h5.7Zm18.809 7.08h-6.27l-1.38-5.58h-1.23l-.96 5.58h-5.7l3.3-18.75h9c3.42 0 5.13 1.53 5.13 4.59 0 1.26-.19 2.46-.57 3.6-.7 2.16-1.8 3.6-3.3 4.32Zm-7.41-13.95-.66 3.75h1.32c.68 0 1.195-.075 1.545-.225.35-.15.59-.58.72-1.29.13-.71.195-1.145.195-1.305 0-.4-.155-.655-.465-.765-.31-.11-.815-.165-1.515-.165Zm-70.428 29.84h-3.72l-.78 4.53h-5.7l3.3-18.75h9c3.4 0 5.1 1.58 5.1 4.74 0 1.5-.21 2.855-.63 4.065-.42 1.21-.885 2.17-1.395 2.88s-1.21 1.31-2.1 1.8c-.89.49-1.915.735-3.075.735Zm-2.07-9.42-.81 4.62h1.32c.68 0 1.195-.075 1.545-.225.35-.15.575-.495.675-1.035.26-1.48.39-2.29.39-2.43 0-.38-.15-.63-.45-.75-.3-.12-.75-.18-1.35-.18Zm20.46 13.95h-11.4l3.3-18.75h5.7l-2.46 13.95h5.7Zm4.14 0h-6l7.89-18.75h8.82l1.32 18.75h-6.03l-.12-2.97h-4.71Zm5.13-12.99-2.1 5.25h2.4v-5.25Zm14.489-5.76.39 6.6h.21l2.76-6.6h6.3l-7.56 13.65-.87 5.1h-5.7l.87-5.1-2.7-13.65Zm20.1 11.67h-5.7l-.39 2.28h6.99l-.84 4.8h-12.69l3.3-18.75h12.54l-1.56 4.8h-6.15l-.42 2.52h5.7Zm3.27 7.08 3.3-18.75h7.98c2.58 0 4.415.455 5.505 1.365 1.09.91 1.635 2.385 1.635 4.425 0 1.04-.12 2.24-.36 3.6-.6 3.36-1.625 5.76-3.075 7.2-1.45 1.44-3.785 2.16-7.005 2.16Zm10.5-13.95h-2.37l-1.59 9.15h2.37c.78 0 1.36-.095 1.74-.285.38-.19.63-.625.75-1.305l1.05-5.97c.02-.12.03-.28.03-.48 0-.46-.16-.76-.48-.9-.32-.14-.82-.21-1.5-.21Z" style="white-space:pre;fill:#fff"/>
</svg>

<?xml version="1.0" encoding="utf-8"?>
<svg version="1.1" id="neverplayed" x="0px" y="0px" viewBox="0 0 200 40" xmlns="http://www.w3.org/2000/svg">
  <path d="M 58.858 1.587 C 59.102 1.178 59.294 0.802 59.531 0.458 C 59.941 -0.143 60.561 -0.162 60.924 0.458 C 62.014 2.3 63.083 4.149 64.126 6.011 C 64.476 6.638 64.14 7.186 63.4 7.199 C 61.287 7.225 59.175 7.225 57.062 7.199 C 56.29 7.192 55.999 6.651 56.349 5.951 C 56.534 5.575 56.758 5.218 57.016 4.763 C 56.415 4.578 55.88 4.38 55.332 4.241 C 46.254 1.931 36.932 7.932 35.302 17.129 C 33.631 26.537 40.26 35.357 49.701 36.294 C 62.113 37.529 71.257 25.025 66.345 13.57 C 66.14 13.088 66.034 12.494 66.1 11.979 C 66.186 11.239 66.919 10.691 67.678 10.658 C 68.497 10.625 69.111 10.995 69.454 11.741 C 70.458 13.894 71.045 16.158 71.217 18.522 C 71.956 28.557 65.216 37.549 55.431 39.576 C 45.607 41.616 35.757 36.143 32.562 26.603 C 29.96 18.832 31.552 11.741 37.381 5.964 C 43.184 0.214 50.216 -1.172 58.006 1.29 C 58.27 1.363 58.515 1.462 58.858 1.587 Z" style="fill: rgb(204, 204, 204);"/>
  <path d="M 48.75 16.277 C 48.75 14.64 48.743 13.009 48.75 11.372 C 48.757 10.487 49.192 9.965 49.899 9.965 C 50.605 9.972 51.021 10.48 51.021 11.385 C 51.028 14.29 51.041 17.188 51.008 20.086 C 51.001 20.614 51.186 20.885 51.629 21.136 C 54.804 22.912 57.967 24.714 61.129 26.51 C 61.287 26.603 61.459 26.682 61.611 26.787 C 62.212 27.197 62.39 27.798 62.073 28.359 C 61.756 28.913 61.129 29.105 60.495 28.781 C 59.795 28.418 59.115 28.009 58.429 27.619 C 55.517 25.969 52.612 24.298 49.688 22.674 C 49.001 22.291 48.717 21.809 48.737 21.024 C 48.776 19.446 48.75 17.861 48.75 16.277 Z" style="fill: rgb(204, 204, 204);"/>
  <path d="M 88.567 19.267 L 85.507 12.607 C 85.427 12.467 85.387 12.272 85.387 12.022 C 85.387 11.772 85.407 11.487 85.447 11.167 L 85.207 11.167 L 83.797 19.267 L 78.097 19.267 L 81.397 0.517 L 86.767 0.517 L 89.827 7.177 C 89.887 7.317 89.917 7.512 89.917 7.762 C 89.917 8.012 89.897 8.297 89.857 8.617 L 90.097 8.617 L 91.537 0.517 L 97.237 0.517 L 93.937 19.267 Z M 110.377 12.187 L 104.677 12.187 L 104.287 14.467 L 111.277 14.467 L 110.437 19.267 L 97.747 19.267 L 101.047 0.517 L 113.587 0.517 L 112.027 5.317 L 105.877 5.317 L 105.457 7.837 L 111.157 7.837 Z M 126.337 0.517 L 132.367 0.517 L 124.657 19.267 L 116.317 19.267 L 115.207 0.517 L 121.537 0.517 L 121.537 12.427 L 121.807 12.427 Z M 143.737 12.187 L 138.037 12.187 L 137.647 14.467 L 144.637 14.467 L 143.797 19.267 L 131.107 19.267 L 134.407 0.517 L 146.947 0.517 L 145.387 5.317 L 139.237 5.317 L 138.817 7.837 L 144.517 7.837 Z M 162.546 19.267 L 156.276 19.267 L 154.896 13.687 L 153.666 13.687 L 152.706 19.267 L 147.006 19.267 L 150.306 0.517 L 159.306 0.517 C 162.726 0.517 164.436 2.047 164.436 5.107 C 164.436 6.367 164.246 7.567 163.866 8.707 C 163.166 10.867 162.066 12.307 160.566 13.027 Z M 155.136 5.317 L 154.476 9.067 L 155.796 9.067 C 156.476 9.067 156.991 8.992 157.341 8.842 C 157.691 8.692 157.931 8.262 158.061 7.552 C 158.191 6.842 158.256 6.407 158.256 6.247 C 158.256 5.847 158.101 5.592 157.791 5.482 C 157.481 5.372 156.976 5.317 156.276 5.317 Z" style="white-space: pre; fill: rgb(255, 255, 255);"/>
  <path d="M 84.708 35.157 L 80.988 35.157 L 80.208 39.687 L 74.508 39.687 L 77.808 20.937 L 86.808 20.937 C 90.208 20.937 91.908 22.517 91.908 25.677 C 91.908 27.177 91.698 28.532 91.278 29.742 C 90.858 30.952 90.393 31.912 89.883 32.622 C 89.373 33.332 88.673 33.932 87.783 34.422 C 86.893 34.912 85.868 35.157 84.708 35.157 Z M 82.638 25.737 L 81.828 30.357 L 83.148 30.357 C 83.828 30.357 84.343 30.282 84.693 30.132 C 85.043 29.982 85.268 29.637 85.368 29.097 C 85.628 27.617 85.758 26.807 85.758 26.667 C 85.758 26.287 85.608 26.037 85.308 25.917 C 85.008 25.797 84.558 25.737 83.958 25.737 Z M 103.098 39.687 L 91.698 39.687 L 94.998 20.937 L 100.698 20.937 L 98.238 34.887 L 103.938 34.887 Z M 107.238 39.687 L 101.238 39.687 L 109.128 20.937 L 117.948 20.937 L 119.268 39.687 L 113.238 39.687 L 113.118 36.717 L 108.408 36.717 Z M 112.368 26.697 L 110.268 31.947 L 112.668 31.947 L 112.668 26.697 Z M 126.857 20.937 L 127.247 27.537 L 127.457 27.537 L 130.217 20.937 L 136.517 20.937 L 128.957 34.587 L 128.087 39.687 L 122.387 39.687 L 123.257 34.587 L 120.557 20.937 Z M 146.957 32.607 L 141.257 32.607 L 140.867 34.887 L 147.857 34.887 L 147.017 39.687 L 134.327 39.687 L 137.627 20.937 L 150.167 20.937 L 148.607 25.737 L 142.457 25.737 L 142.037 28.257 L 147.737 28.257 Z M 150.227 39.687 L 153.527 20.937 L 161.507 20.937 C 164.087 20.937 165.922 21.392 167.012 22.302 C 168.102 23.212 168.647 24.687 168.647 26.727 C 168.647 27.767 168.527 28.967 168.287 30.327 C 167.687 33.687 166.662 36.087 165.212 37.527 C 163.762 38.967 161.427 39.687 158.207 39.687 Z M 160.727 25.737 L 158.357 25.737 L 156.767 34.887 L 159.137 34.887 C 159.917 34.887 160.497 34.792 160.877 34.602 C 161.257 34.412 161.507 33.977 161.627 33.297 L 162.677 27.327 C 162.697 27.207 162.707 27.047 162.707 26.847 C 162.707 26.387 162.547 26.087 162.227 25.947 C 161.907 25.807 161.407 25.737 160.727 25.737 Z" style="white-space: pre; fill: rgb(255, 255, 255);"/>
</svg>
